X: 139033
T: The BOYS OF LIMERICK
Q: "Irish Reel."
R: Reel.
%R: reel
B: James Kerr "Merry Melodies" v.1 p.39 s.0 #33
Z: 2016 John Chambers <jc:trillian.mit.edu>
M: C
L: 1/8
K: D
vdB !segno!|:\
(AF)dB (AB)AF | (DF)AF E2EB |\
(AF)Ad (BG)Bd |[1 (cA)Bc (dc)dB :|[2 (cA)Bc (de)fg ||
|:\
a2fd (fa)fd | (fa)fd e2ef |\
(gf)ef (gb)ag |[1 (fe)dc (de)fg :|2 (fe)dc (dc)d"_D.C."B |]

%%sep 1 1 500
%%sep 1 1 500

